X: 278
T:The High Reel
T:Sandy Duff
N: page 92
N: heptatonic
N: matches 1181
R:reel
E:7
M:C|
I:speed 350
K:Amix
|"A"a2fa eA~A2|cAeA cA~A2|a2fa eA~A2|\
"G"Bcdc BG~G2|"A"a2fa eA~A2|
(3Bcd ef "G"g2fg|"A"afge fded|"G"Bcdc BG~G2||\
|"A"(3cBA eA fAeA|(3cBA eA cA~A2|
(3cBA eA fAeA|"G"Bcdc BG~G2|"A"(3cBA eA fAeA|\
(3Bcd ef "G"g2fg|"A"af(3gfe fded|"G"Bcdc BG~G2||
